X: 92
T:Flowers of Quern
M:4/4
L:1/8
C:JS Skinner
K:G
D|"G"G2 G2 "D"F2 ED|"C"c2 c2 "G"B2 d2|"G"d2 BA "Em"G2 AB|"D"A6 D|"G"G2 G
2 "D"F2 ED|!
"C"c2 c2 "G"B2 d2|"Am"dcEA"D7"G2 F2|"G"G6G2|| "C"c2 c>c c2 e>e|"G"d2 d>B
 d2 g>e|!
"G"d2 B>A "Em"G2 AB|"A7"A6 "D7"D2|"G"G2 G2 "D"F2 ED|"C"c2 c2 "G"B2 d>d|"
Am"dcFA "D7"GFB>A|"G"G6||
% <A name="D1X093">
